static/assets/img/icons/theme/code/compiling.svg

<svg height="24" viewBox="0 0 24 24" width="24" xmlns="http://www.w3.org/2000/svg"><g fill="none" fill-rule="evenodd"><path d="m0 0h24v24h-24z" opacity="0"/><g fill="#000"><path d="m2.56066017 10.6819805 2.12132035-2.12132033c.58578643-.58578644 1.5355339-.58578644 2.12132034 0l2.12132034 2.12132033c.58578644.5857865.58578644 1.5355339 0 2.1213204l-2.12132034 2.1213203c-.58578644.5857864-1.53553391.5857864-2.12132034 0l-2.12132035-2.1213203c-.58578644-.5857865-.58578644-1.5355339 0-2.1213204zm12.00000003 0 2.1213203-2.12132033c.5857865-.58578644 1.5355339-.58578644 2.1213204 0l2.1213203 2.12132033c.5857864.5857865.5857864 1.5355339 0 2.1213204l-2.1213203 2.1213203c-.5857865.5857864-1.5355339.5857864-2.1213204 0l-2.1213203-2.1213203c-.5857865-.5857865-.5857865-1.5355339 0-2.1213204z" opacity=".3"/><path d="m8.56066017 16.6819805 2.12132033-2.1213203c.5857865-.5857865 1.5355339-.5857865 2.1213204 0l2.1213203 2.1213203c.5857864.5857865.5857864 1.5355339 0 2.1213204l-2.1213203 2.1213203c-.5857865.5857864-1.5355339.5857864-2.1213204 0l-2.12132033-2.1213203c-.58578644-.5857865-.58578644-1.5355339 0-2.1213204zm0-11.99999998 2.12132033-2.12132035c.5857865-.58578644 1.5355339-.58578644 2.1213204 0l2.1213203 2.12132035c.5857864.58578643.5857864 1.5355339 0 2.12132034l-2.1213203 2.12132034c-.5857865.58578644-1.5355339.58578644-2.1213204 0l-2.12132033-2.12132034c-.58578644-.58578644-.58578644-1.53553391 0-2.12132034z"/></g></g></svg>

<svg width="24px" height="24px" viewBox="0 0 24 24" version="1.1" xmlns="http://www.w3.org/2000/svg" xmlns:xlink="http://www.w3.org/1999/xlink">
    <title>Icon For Compiling</title>
    <g stroke="none" stroke-width="1" fill="none" fill-rule="evenodd">
        <rect opacity="0" x="0" y="0" width="24" height="24"></rect>
        <path d="M2.56066017,10.6819805 L4.68198052,8.56066017 C5.26776695,7.97487373 6.21751442,7.97487373 6.80330086,8.56066017 L8.9246212,10.6819805 C9.51040764,11.267767 9.51040764,12.2175144 8.9246212,12.8033009 L6.80330086,14.9246212 C6.21751442,15.5104076 5.26776695,15.5104076 4.68198052,14.9246212 L2.56066017,12.8033009 C1.97487373,12.2175144 1.97487373,11.267767 2.56066017,10.6819805 Z M14.5606602,10.6819805 L16.6819805,8.56066017 C17.267767,7.97487373 18.2175144,7.97487373 18.8033009,8.56066017 L20.9246212,10.6819805 C21.5104076,11.267767 21.5104076,12.2175144 20.9246212,12.8033009 L18.8033009,14.9246212 C18.2175144,15.5104076 17.267767,15.5104076 16.6819805,14.9246212 L14.5606602,12.8033009 C13.9748737,12.2175144 13.9748737,11.267767 14.5606602,10.6819805 Z" fill="#000000" opacity="0.3"></path>
        <path d="M8.56066017,16.6819805 L10.6819805,14.5606602 C11.267767,13.9748737 12.2175144,13.9748737 12.8033009,14.5606602 L14.9246212,16.6819805 C15.5104076,17.267767 15.5104076,18.2175144 14.9246212,18.8033009 L12.8033009,20.9246212 C12.2175144,21.5104076 11.267767,21.5104076 10.6819805,20.9246212 L8.56066017,18.8033009 C7.97487373,18.2175144 7.97487373,17.267767 8.56066017,16.6819805 Z M8.56066017,4.68198052 L10.6819805,2.56066017 C11.267767,1.97487373 12.2175144,1.97487373 12.8033009,2.56066017 L14.9246212,4.68198052 C15.5104076,5.26776695 15.5104076,6.21751442 14.9246212,6.80330086 L12.8033009,8.9246212 C12.2175144,9.51040764 11.267767,9.51040764 10.6819805,8.9246212 L8.56066017,6.80330086 C7.97487373,6.21751442 7.97487373,5.26776695 8.56066017,4.68198052 Z" fill="#000000"></path>
    </g>
</svg>
